X:1
T:Princess Royal (Johnny Doherty version)
M:4/4
R:
K:Ador
ed | c2 B2 A2 e=f | ed cB A2 (3efg | f2 d2 d2 gf | ed cB c2 BA |
~B2 g2 ~B2 G2 | AB AG E2 ed | cB Ac B2 ^G2 | 1 A4-A2 :| 2 A4 AB ^cd ||
e2 a2 ag ab | ag ed e3 d | ea gf g2 e2 | dc BA G2 AB | c2 c2 d2 d2 |
ef (3gfe a3 g | f2 A2 f3 g | e2 A2 d2 ed | c2 B2 AB cd | e2 E2 E2 ed |
cB Ac B2 ^G2 | 1 A4 AB ^cd :| 2 A4-A2 ||
